;FLAVOR:Marlin
;TIME:7336
;Filament used: 4.60796m
;Layer height: 0.2
;MINX:58
;MINY:72.5
;MINZ:0.2
;MAXX:172
;MAXY:157.5
;MAXZ:19
;TARGET_MACHINE.NAME:Creality Ender-3 v2 Neo
;Generated with Cura_SteamEngine 5.8.0
M140 S60
M105
M190 S60
M104 S200
M105
M109 S200
M82 ;absolute extrusion mode
G92 E0 ;Reset Extruder
G28 ;Home
G1 Z2.0 F3000 ;Move Z Axis up
G1 X10.1 Y20 Z0.28 F5000.0 ;Move to start position
G1 X10.1 Y200.0 Z0.28 F1500.0 E15 ;Draw the first line
G1 X10.4 Y200.0 Z0.28 F5000.0 ;Move to side a little
G1 X10.4 Y20 Z0.28 F1500.0 E30 ;Draw the second line
G92 E0 ;Reset Extruder
G1 Z2.0 F3000 ;Move Z Axis up
G92 E0
G92 E0
G1 F1500 E-4
;LAYER_COUNT:95
;LAYER:0
M107
G0 F6000 X63.512 Y75.893 Z0.2
;TYPE:SKIRT
G1 F1500 E0
G1 F1200 X64.328 Y75.286 E0.03383
G1 X64.832 Y74.943 E0.0541
G1 X66.024 Y74.238 E0.10016
G1 X66.44 Y74.027 E0.11568
G1 X67.324 Y73.63 E0.14791
G1 X67.604 Y73.52 E0.15791
G1 X68.505 Y73.209 E0.18962
G1 X69.119 Y73.029 E0.2109
G1 X69.995 Y72.811 E0.24092
G1 X70.7 Y72.689 E0.26472
G1 X71.125 Y72.631 E0.27899
G1 X72.046 Y72.546 E0.30975
G1 X72.563 Y72.519 E0.32697
G1 X73.094 Y72.506 E0.34463
G1 X156.317 Y72.5 E3.11264
G1 X157.216 Y72.511 E3.14255
G1 X158.095 Y72.553 E3.17181
G1 X159.096 Y72.661 E3.2053
G1 X159.56 Y72.734 E3.22092
G1 X160.729 Y72.983 E3.26068
G1 X161.161 Y73.102 E3.27558
G1 X162.156 Y73.429 E3.31042
G1 X162.527 Y73.572 E3.32364
G1 X163.441 Y73.972 E3.35682
G1 X163.915 Y74.207 E3.37442
G1 X164.964 Y74.805 E3.41458
G1 X165.453 Y75.124 E3.434
G1 X166.211 Y75.668 E3.46503
G1 X166.946 Y76.285 E3.49695
G1 X167.655 Y76.956 E3.52942
G1 X167.881 Y77.19 E3.54024
G1 X168.536 Y77.934 E3.57321
G1 X168.8 Y78.264 E3.58726
G1 X169.369 Y79.04 E3.61927
G1 X169.622 Y79.423 E3.63453
G1 X170.203 Y80.407 E3.67254
G1 X170.569 Y81.142 E3.69985
G1 X170.703 Y81.433 E3.71051
G1 X171.035 Y82.242 E3.73959
G1 X171.138 Y82.528 E3.7497
G1 X171.395 Y83.335 E3.77787
G1 X171.519 Y83.793 E3.79365
G1 X171.774 Y84.995 E3.83452
G1 X171.846 Y85.464 E3.8503
G1 X171.951 Y86.484 E3.88441
G1 X171.98 Y87.025 E3.90243
G1 X171.994 Y87.576 E3.92076
G1 X172 Y141.817 E5.72482
G1 X171.991 Y142.569 E5.74984
G1 X171.957 Y143.421 E5.7782
G1 X171.839 Y144.601 E5.81764
G1 X171.768 Y145.052 E5.83282
G1 X171.521 Y146.209 E5.87217
G1 X171.415 Y146.595 E5.88549
G1 X171.131 Y147.484 E5.91653
G1 X170.976 Y147.904 E5.93142
G1 X170.426 Y149.141 E5.97644
G1 X170.175 Y149.621 E5.99446
G1 X169.761 Y150.345 E6.0222
G1 X169.544 Y150.691 E6.03578
G1 X168.805 Y151.732 E6.07824
G1 X168.537 Y152.066 E6.09249
G1 X167.72 Y152.974 E6.13311
G1 X167.414 Y153.279 E6.14748
G1 X166.567 Y154.035 E6.18524
G1 X166.193 Y154.334 E6.20117
G1 X165.396 Y154.914 E6.23395
G1 X165.052 Y155.14 E6.24764
G1 X164.099 Y155.699 E6.28439
G1 X163.766 Y155.872 E6.29687
G1 X162.972 Y156.247 E6.32608
G1 X162.32 Y156.512 E6.34949
G1 X162.02 Y156.622 E6.36011
G1 X161.098 Y156.915 E6.39229
G1 X160.647 Y157.037 E6.40783
G1 X159.449 Y157.286 E6.44853
G1 X158.99 Y157.353 E6.46396
G1 X157.955 Y157.454 E6.49854
G1 X157.438 Y157.481 E6.51576
G1 X156.906 Y157.494 E6.53346
G1 X73.683 Y157.5 E9.30147
G1 X72.784 Y157.489 E9.33137
G1 X71.905 Y157.447 E9.36064
G1 X70.9 Y157.338 E9.39426
G1 X70.437 Y157.265 E9.40985
G1 X69.28 Y157.018 E9.4492
G1 X68.846 Y156.899 E9.46417
G1 X67.799 Y156.554 E9.50084
G1 X67.429 Y156.41 E9.51404
G1 X66.544 Y156.023 E9.54617
G1 X66.137 Y155.822 E9.56127
G1 X64.991 Y155.167 E9.60517
G1 X64.639 Y154.937 E9.61915
G1 X63.741 Y154.283 E9.6561
G1 X63.346 Y153.962 E9.67303
G1 X62.475 Y153.172 E9.71214
G1 X62.167 Y152.859 E9.72675
G1 X61.463 Y152.067 E9.76199
G1 X61.207 Y151.749 E9.77557
G1 X60.535 Y150.818 E9.81376
G1 X60.24 Y150.359 E9.83191
G1 X59.756 Y149.529 E9.86386
G1 X59.518 Y149.046 E9.88177
G1 X59.308 Y148.592 E9.89841
G1 X58.966 Y147.761 E9.9283
G1 X58.853 Y147.449 E9.93934
G1 X58.61 Y146.69 E9.96584
G1 X58.507 Y146.322 E9.97855
G1 X58.255 Y145.173 E10.01768
G1 X58.164 Y144.603 E10.03687
G1 X58.045 Y143.464 E10.07496
G1 X58.008 Y142.556 E10.10519
G1 X58 Y141.854 E10.12854
G1 X58.001 Y88.03 E11.91873
G1 X58.02 Y87.05 E11.95133
G1 X58.046 Y86.533 E11.96855
G1 X58.167 Y85.363 E12.00767
G1 X58.246 Y84.872 E12.02421
G1 X58.491 Y83.744 E12.06261
G1 X58.596 Y83.364 E12.07572
G1 X58.868 Y82.519 E12.10524
G1 X59.02 Y82.11 E12.11976
G1 X59.477 Y81.051 E12.15812
G1 X59.731 Y80.54 E12.1771
G1 X60.348 Y79.468 E12.21824
G1 X60.616 Y79.063 E12.23439
G1 X61.274 Y78.17 E12.27128
G1 X61.619 Y77.752 E12.28931
G1 X62.457 Y76.845 E12.33038
G1 X62.722 Y76.59 E12.34261
G1 X63.512 Y75.893 E12.37765
G0 F6000 X63.751 Y76.214
G1 F1200 X64.553 Y75.617 E12.41091
G1 X65.057 Y75.274 E12.43118
G1 X66.228 Y74.582 E12.47642
G1 X66.604 Y74.392 E12.49044
G1 X67.47 Y74.002 E12.52202
G1 X67.735 Y73.898 E12.53149
G1 X68.618 Y73.593 E12.56256
G1 X69.216 Y73.417 E12.5833
G1 X70.092 Y73.199 E12.61332
G1 X70.754 Y73.085 E12.63566
G1 X71.162 Y73.029 E12.64936
G1 X72.066 Y72.945 E12.67956
G1 X72.573 Y72.919 E12.69644
G1 X73.094 Y72.906 E12.71378
G1 X156.312 Y72.9 E15.48162
G1 X157.197 Y72.911 E15.51106
G1 X158.052 Y72.951 E15.53953
G1 X159.034 Y73.056 E15.57237
G1 X159.477 Y73.125 E15.58728
G1 X160.623 Y73.369 E15.62626
G1 X161.036 Y73.482 E15.6405
G1 X162.012 Y73.802 E15.67466
G1 X162.383 Y73.945 E15.68788
G1 X163.263 Y74.33 E15.71983
G1 X163.717 Y74.555 E15.73668
G1 X164.766 Y75.153 E15.77684
G1 X165.22 Y75.449 E15.79487
G1 X165.954 Y75.975 E15.8249
G1 X166.671 Y76.576 E15.85602
G1 X167.367 Y77.234 E15.88788
G1 X167.593 Y77.468 E15.8987
G1 X168.224 Y78.184 E15.93044
G1 X168.478 Y78.501 E15.94395
G1 X169.036 Y79.261 E15.97531
G1 X169.278 Y79.626 E15.98988
G1 X169.845 Y80.586 E16.02696
G1 X170.206 Y81.309 E16.05384
G1 X170.333 Y81.585 E16.06394
G1 X170.659 Y82.378 E16.09246
G1 X170.757 Y82.65 E16.10208
G1 X171.009 Y83.44 E16.12966
G1 X171.128 Y83.876 E16.14469
G1 X171.379 Y85.056 E16.18481
G1 X171.448 Y85.505 E16.19992
G1 X171.553 Y86.525 E16.23403
G1 X171.58 Y87.035 E16.25101
G1 X171.594 Y87.576 E16.26901
G1 X171.6 Y141.812 E18.07291
G1 X171.591 Y142.553 E18.09756
G1 X171.557 Y143.405 E18.12592
G1 X171.444 Y144.539 E18.16382
G1 X171.377 Y144.969 E18.1783
G1 X171.135 Y146.104 E18.21689
G1 X171.034 Y146.474 E18.22965
G1 X170.756 Y147.346 E18.26009
G1 X170.61 Y147.742 E18.27413
G1 X170.071 Y148.956 E18.31831
G1 X169.828 Y149.422 E18.33579
G1 X169.422 Y150.132 E18.36299
G1 X169.205 Y150.478 E18.37657
G1 X168.493 Y151.482 E18.41751
G1 X168.225 Y151.816 E18.43176
G1 X167.438 Y152.691 E18.4709
G1 X167.147 Y152.981 E18.48456
G1 X166.317 Y153.723 E18.52159
G1 X165.958 Y154.011 E18.5369
G1 X165.176 Y154.58 E18.56906
G1 X164.85 Y154.795 E18.58205
G1 X163.914 Y155.344 E18.61814
G1 X163.595 Y155.51 E18.63011
G1 X162.821 Y155.876 E18.65858
G1 X162.182 Y156.136 E18.68153
G1 X161.882 Y156.246 E18.69215
G1 X160.994 Y156.529 E18.72315
G1 X160.565 Y156.645 E18.73793
G1 X159.391 Y156.89 E18.77782
G1 X158.951 Y156.955 E18.79262
G1 X157.934 Y157.055 E18.8266
G1 X157.428 Y157.081 E18.84346
G1 X156.906 Y157.094 E18.86082
G1 X73.688 Y157.1 E21.62867
G1 X72.803 Y157.089 E21.6581
G1 X71.948 Y157.049 E21.68657
G1 X70.962 Y156.943 E21.71956
G1 X70.52 Y156.874 E21.73443
G1 X69.385 Y156.632 E21.77303
G1 X68.971 Y156.519 E21.78731
G1 X67.944 Y156.181 E21.82327
G1 X67.574 Y156.037 E21.83647
G1 X66.721 Y155.664 E21.86744
G1 X66.314 Y155.463 E21.88253
G1 X65.21 Y154.832 E21.92483
G1 X64.858 Y154.602 E21.93881
G1 X63.993 Y153.972 E21.97441
G1 X63.615 Y153.666 E21.99058
G1 X62.744 Y152.876 E22.02969
G1 X62.466 Y152.593 E22.04289
G1 X61.775 Y151.816 E22.07747
G1 X61.519 Y151.498 E22.09105
G1 X60.871 Y150.601 E22.12785
G1 X60.585 Y150.157 E22.14542
G1 X60.115 Y149.352 E22.17642
G1 X59.881 Y148.878 E22.19401
G1 X59.678 Y148.44 E22.21006
G1 X59.342 Y147.624 E22.23941
G1 X59.234 Y147.327 E22.24992
G1 X58.995 Y146.582 E22.27595
G1 X58.898 Y146.236 E22.2879
G1 X58.646 Y145.087 E22.32702
G1 X58.562 Y144.561 E22.34474
G1 X58.445 Y143.447 E22.38199
G1 X58.408 Y142.551 E22.41182
G1 X58.4 Y141.854 E22.435
G1 X58.401 Y88.038 E24.22493
G1 X58.42 Y87.069 E24.25717
G1 X58.444 Y86.574 E24.27365
G1 X58.562 Y85.426 E24.31203
G1 X58.637 Y84.957 E24.32783
G1 X58.882 Y83.829 E24.36622
G1 X58.977 Y83.486 E24.37806
G1 X59.243 Y82.658 E24.40699
G1 X59.387 Y82.268 E24.42081
G1 X59.835 Y81.229 E24.45845
G1 X60.078 Y80.74 E24.47661
G1 X60.695 Y79.668 E24.51775
G1 X60.938 Y79.3 E24.53242
G1 X61.583 Y78.424 E24.5686
G1 X61.913 Y78.023 E24.58587
G1 X62.735 Y77.133 E24.62617
G1 X62.987 Y76.89 E24.63781
G1 X63.751 Y76.214 E24.67174
G0 F6000 X63.99 Y76.535
G1 F1200 X64.778 Y75.948 E24.70442
G1 X65.282 Y75.605 E24.7247
G1 X66.409 Y74.939 E24.76824
G1 X66.768 Y74.757 E24.78162
G1 X67.618 Y74.374 E24.81263
G1 X67.865 Y74.276 E24.82147
G1 X68.732 Y73.977 E24.85197
G1 X69.313 Y73.805 E24.87213
G1 X70.189 Y73.587 E24.90215
G1 X70.809 Y73.481 E24.92307
G1 X71.199 Y73.427 E24.93617
G1 X72.086 Y73.344 E24.9658
G1 X72.583 Y73.319 E24.98235
G1 X73.094 Y73.306 E24.99935
G1 X156.307 Y73.3 E27.76703
G1 X157.179 Y73.311 E27.79603
G1 X158.01 Y73.349 E27.8237
G1 X158.973 Y73.451 E27.85591
G1 X159.394 Y73.516 E27.87008
G1 X160.518 Y73.755 E27.9083
G1 X160.911 Y73.862 E27.92184
G1 X161.887 Y74.182 E27.95601
G1 X162.223 Y74.311 E27.96798
G1 X163.086 Y74.689 E27.99931
G1 X163.519 Y74.903 E28.01538
G1 X164.568 Y75.501 E28.05554
G1 X164.987 Y75.774 E28.07217
G1 X165.721 Y76.3 E28.10221
G1 X166.396 Y76.867 E28.13153
G1 X167.079 Y77.512 E28.16277
G1 X167.305 Y77.746 E28.17359
G1 X167.912 Y78.435 E28.20413
G1 X168.156 Y78.738 E28.21707
G1 X168.703 Y79.483 E28.24781
G1 X168.934 Y79.83 E28.26168
G1 X169.487 Y80.765 E28.29781
G1 X169.843 Y81.476 E28.32425
G1 X169.963 Y81.737 E28.33381
G1 X170.283 Y82.515 E28.36179
G1 X170.376 Y82.771 E28.37085
G1 X170.623 Y83.546 E28.3979
G1 X170.737 Y83.96 E28.41218
G1 X170.984 Y85.117 E28.45153
G1 X171.05 Y85.546 E28.46597
G1 X171.155 Y86.566 E28.50007
G1 X171.18 Y87.046 E28.51606
G1 X171.194 Y87.576 E28.53369
G1 X171.2 Y141.807 E30.33742
G1 X171.191 Y142.537 E30.36171
G1 X171.157 Y143.389 E30.39007
G1 X171.049 Y144.478 E30.42646
G1 X170.986 Y144.886 E30.4402
G1 X170.749 Y145.999 E30.47804
G1 X170.653 Y146.353 E30.49024
G1 X170.381 Y147.208 E30.52008
G1 X170.244 Y147.58 E30.53327
G1 X169.716 Y148.771 E30.5766
G1 X169.473 Y149.237 E30.59408
G1 X169.083 Y149.92 E30.62024
G1 X168.879 Y150.247 E30.63306
G1 X168.181 Y151.232 E30.67321
G1 X167.913 Y151.566 E30.68746
G1 X167.156 Y152.408 E30.72511
G1 X166.88 Y152.683 E30.73807
G1 X166.067 Y153.411 E30.77437
G1 X165.722 Y153.688 E30.78909
G1 X164.956 Y154.246 E30.82061
G1 X164.647 Y154.45 E30.83292
G1 X163.73 Y154.989 E30.8683
G1 X163.424 Y155.148 E30.87977
G1 X162.67 Y155.505 E30.90752
G1 X162.031 Y155.765 E30.93046
G1 X161.76 Y155.865 E30.94007
G1 X160.89 Y156.143 E30.97045
G1 X160.483 Y156.253 E30.98447
G1 X159.332 Y156.494 E31.02358
G1 X158.911 Y156.557 E31.03774
G1 X157.914 Y156.656 E31.07106
G1 X157.418 Y156.681 E31.08758
G1 X156.906 Y156.694 E31.10462
G1 X73.693 Y156.7 E33.87229
G1 X72.821 Y156.689 E33.9013
G1 X71.99 Y156.651 E33.92896
G1 X71.023 Y156.548 E33.96131
G1 X70.603 Y156.483 E33.97544
G1 X69.49 Y156.246 E34.01329
G1 X69.096 Y156.139 E34.02687
G1 X68.088 Y155.808 E34.06216
G1 X67.734 Y155.671 E34.07479
G1 X66.898 Y155.305 E34.10514
G1 X66.491 Y155.104 E34.12024
G1 X65.429 Y154.497 E34.16092
G1 X65.077 Y154.267 E34.17491
G1 X64.244 Y153.661 E34.20917
G1 X63.884 Y153.37 E34.22456
G1 X63.029 Y152.595 E34.26295
G1 X62.765 Y152.327 E34.27546
G1 X62.087 Y151.565 E34.30938
G1 X61.831 Y151.247 E34.32296
G1 X61.207 Y150.384 E34.35838
G1 X60.93 Y149.955 E34.37537
G1 X60.474 Y149.175 E34.40542
G1 X60.244 Y148.71 E34.42267
G1 X60.048 Y148.287 E34.43818
G1 X59.718 Y147.487 E34.46696
G1 X59.615 Y147.204 E34.47698
G1 X59.38 Y146.474 E34.50248
G1 X59.289 Y146.15 E34.51368
G1 X59.037 Y145.001 E34.5528
G1 X58.96 Y144.519 E34.56904
G1 X58.845 Y143.43 E34.60546
G1 X58.808 Y142.546 E34.63488
G1 X58.8 Y141.854 E34.6579
G1 X58.801 Y88.046 E36.44756
G1 X58.82 Y87.088 E36.47943
G1 X58.842 Y86.615 E36.49518
G1 X58.957 Y85.489 E36.53283
G1 X59.028 Y85.042 E36.54788
G1 X59.268 Y83.935 E36.58556
G1 X59.358 Y83.608 E36.59684
G1 X59.618 Y82.796 E36.62519
G1 X59.754 Y82.426 E36.63831
G1 X60.193 Y81.407 E36.67521
G1 X60.425 Y80.94 E36.69255
G1 X61.042 Y79.868 E36.73369
G1 X61.26 Y79.537 E36.74687
G1 X61.892 Y78.678 E36.78234
G1 X62.207 Y78.294 E36.79886
G1 X63.013 Y77.421 E36.83838
G1 X63.265 Y77.178 E36.85003
G1 X63.99 Y76.535 E36.88226
G1 F1500 E32.88226
;MESH:raspiBplusCase_top_extraTall
G0 F6000 X78.72 Y87.902
G0 X115 Y140.6
;TYPE:WALL-INNER
G1 F1500 E36.88226
G1 F1200 X79.379 Y140.6 E38.06702
G1 X79.087 Y140.436 E38.07815
G1 X78.946 Y140.233 E38.08638
G1 X78.9 Y140.077 E38.09178
G1 X78.9 Y87.921 E39.8265
G1 X79.02 Y87.639 E39.83669
G1 X79.14 Y87.52 E39.84231
G1 X79.426 Y87.4 E39.85263
G1 X155.5 Y87.4 E42.38286
G1 X155.687 Y87.429 E42.38916
G1 X155.917 Y87.567 E42.39808
G1 X156.053 Y87.764 E42.40604
G1 X156.1 Y87.931 E42.41181
G1 X156.1 Y140.133 E44.14805
G1 X155.908 Y140.44 E44.1601
G1 X155.747 Y140.548 E44.16655
G1 X155.578 Y140.6 E44.17243
G1 X115 Y140.6 E45.52206
G1 F1500 E41.52206
G0 F6000 X115 Y145.7
G0 X115 Y145.9
G1 F1500 E45.52206
G1 F1200 X156.971 Y145.9 E46.91802
G1 X157.356 Y145.878 E46.93084
G1 X157.699 Y145.824 E46.94239
G1 X158.032 Y145.735 E46.95386
G1 X158.379 Y145.605 E46.96618
G1 X158.689 Y145.45 E46.97771
G1 X158.989 Y145.254 E46.98963
G1 X159.266 Y145.028 E47.00152
G1 X159.529 Y144.769 E47.0138
G1 X159.744 Y144.5 E47.02525
G1 X159.939 Y144.199 E47.03718
G1 X160.103 Y143.878 E47.04917
G1 X160.233 Y143.543 E47.06112
G1 X160.324 Y143.214 E47.07247
G1 X160.378 Y142.857 E47.08448
G1 X160.4 Y142.475 E47.09721
G1 X160.4 Y87.506 E48.92548
G1 X160.378 Y87.137 E48.93778
G1 X160.324 Y86.794 E48.94933
G1 X160.235 Y86.468 E48.96057
G1 X160.105 Y86.118 E48.97299
G1 X159.951 Y85.817 E48.98423
G1 X159.749 Y85.505 E48.99659
G1 X159.523 Y85.224 E49.00859
G1 X159.284 Y84.982 E49.0199
G1 X159.002 Y84.755 E49.03194
G1 X158.697 Y84.556 E49.04405
G1 X158.381 Y84.392 E49.05589
G1 X158.05 Y84.264 E49.0677
G1 X157.715 Y84.176 E49.07922
G1 X157.361 Y84.118 E49.09115
G1 X156.978 Y84.1 E49.1039
G1 X73.022 Y84.1 E51.89629
G1 X72.638 Y84.118 E51.90908
G1 X72.297 Y84.172 E51.92056
G1 X71.966 Y84.26 E51.93195
G1 X71.619 Y84.394 E51.94432
G1 X71.305 Y84.551 E51.956
G1 X71.005 Y84.743 E51.96784
G1 X70.731 Y84.966 E51.97959
G1 X70.472 Y85.225 E51.99178
G1 X70.254 Y85.498 E52.0034
G1 X70.056 Y85.799 E52.01538
G1 X69.893 Y86.118 E52.0273
G1 X69.764 Y86.45 E52.03914
G1 X69.676 Y86.782 E52.05057
G1 X69.618 Y87.135 E52.06246
G1 X69.6 Y87.518 E52.07522
G1 X69.601 Y142.485 E53.90343
G1 X69.618 Y142.851 E53.91561
G1 X69.672 Y143.203 E53.92746
G1 X69.76 Y143.525 E53.93856
G1 X69.894 Y143.878 E53.95112
G1 X70.047 Y144.182 E53.96244
G1 X70.245 Y144.489 E53.97459
G1 X70.468 Y144.77 E53.98652
G1 X70.714 Y145.013 E53.99802
G1 X70.995 Y145.242 E54.01008
G1 X71.299 Y145.44 E54.02214
G1 X71.614 Y145.603 E54.03394
G1 X71.952 Y145.733 E54.04598
G1 X72.282 Y145.824 E54.05737
G1 X72.635 Y145.878 E54.06925
G1 X73.021 Y145.9 E54.08211
G1 X115 Y145.9 E55.47833
G0 F6000 X115 Y146.3
;TYPE:WALL-OUTER
G1 F1200 X156.982 Y146.3 E56.87466
G1 X157.398 Y146.276 E56.88852
G1 X157.782 Y146.216 E56.90145
G1 X158.154 Y146.117 E56.91425
G1 X158.539 Y145.972 E56.92793
G1 X158.888 Y145.798 E56.9409
G1 X159.225 Y145.578 E56.95429
G1 X159.534 Y145.326 E56.96755
G1 X159.827 Y145.037 E56.98124
G1 X160.069 Y144.734 E56.99414
G1 X160.286 Y144.399 E57.00741
G1 X160.469 Y144.042 E57.02076
G1 X160.613 Y143.669 E57.03405
G1 X160.716 Y143.298 E57.04686
G1 X160.776 Y142.899 E57.06028
G1 X160.8 Y142.486 E57.07404
G1 X160.8 Y87.494 E58.90308
G1 X160.776 Y87.094 E58.91641
G1 X160.716 Y86.71 E58.92934
G1 X160.617 Y86.346 E58.94188
G1 X160.472 Y85.957 E58.95569
G1 X160.298 Y85.617 E58.96839
G1 X160.073 Y85.27 E58.98215
G1 X159.822 Y84.958 E58.99547
G1 X159.553 Y84.685 E59.00821
G1 X159.238 Y84.431 E59.02167
G1 X158.899 Y84.21 E59.03513
G1 X158.545 Y84.027 E59.04839
G1 X158.174 Y83.883 E59.06162
G1 X157.798 Y83.784 E59.07456
G1 X157.403 Y83.72 E59.08786
G1 X156.987 Y83.7 E59.10172
