;FLAVOR:Marlin
;TIME:5710
;Filament used: 5.85131m
;Layer height: 0.2
;MINX:44
;MINY:44
;MINZ:0.2
;MAXX:186
;MAXY:186
;MAXZ:60
;TARGET_MACHINE.NAME:Creality Ender-3 v2 Neo
;POSTPROCESSED
;  [CreateThumbnail]
;  [CreateThumbnail]
;Generated with Cura_SteamEngine 5.8.0
;
;

;
;

M140 S60
M105
M190 S60
M104 S200
M105
M109 S200
M82 ;absolute extrusion mode
G92 E0 ;Reset Extruder
G28 ;Home
SQUARE_CORNER_VELOCITY=5
SET_VELOCITY_LIMIT MINIMUM_CRUISE_RATIO=0
SET_INPUT_SHAPER SHAPER_FREQ_X=0 SHAPER_FREQ_Y=0
TUNING_TOWER COMMAND=SET_VELOCITY_LIMIT PARAMETER=ACCEL START=1500 STEP_DELTA=500 STEP_HEIGHT=5
G1 Z2.0 F3000 ;Move Z Axis up
G1 X10.1 Y20 Z0.28 F5000.0 ;Move to start position
G1 X10.1 Y200.0 Z0.28 F1500.0 E15 ;Draw the first line
G1 X10.4 Y200.0 Z0.28 F5000.0 ;Move to side a little
G1 X10.4 Y20 Z0.28 F1500.0 E30 ;Draw the second line
G92 E0 ;Reset Extruder
G1 Z2.0 F3000 ;Move Z Axis up
G92 E0
G92 E0
G1 F1500 E-4
;LAYER_COUNT:300
;LAYER:0
M107
G0 F6000 X47.456 Y47.013 Z0.2
;TYPE:SKIRT
G1 F1500 E0
G1 F1200 X48.192 Y46.376 E0.03237
G1 X48.924 Y45.846 E0.06243
G1 X49.821 Y45.311 E0.09717
G1 X50.699 Y44.89 E0.12956
G1 X51.612 Y44.548 E0.16198
G1 X52.549 Y44.289 E0.19432
G1 X53.516 Y44.111 E0.22702
G1 X54.655 Y44.015 E0.26504
G1 X55.312 Y44 E0.2869
G1 X127.207 Y44 E2.67813
G1 X128.08 Y44.011 E2.70717
G1 X128.528 Y44.028 E2.72208
G1 X131.235 Y44.18 E2.81226
G1 X133.764 Y44.251 E2.89641
G1 X136.254 Y44.251 E2.97923
G1 X138.795 Y44.178 E3.06377
G1 X141.498 Y44.026 E3.15382
G1 X141.974 Y44.009 E3.16966
G1 X142.718 Y44 E3.19441
G1 X174.451 Y44.001 E4.24985
G1 X175.184 Y44.013 E4.27423
G1 X176.156 Y44.072 E4.30662
G1 X177.119 Y44.218 E4.33902
G1 X178.066 Y44.449 E4.37144
G1 X178.954 Y44.749 E4.40261
G1 X179.846 Y45.139 E4.43499
G1 X180.729 Y45.626 E4.46853
G1 X181.48 Y46.128 E4.49858
G1 X182.295 Y46.786 E4.53342
G1 X182.993 Y47.464 E4.56578
G1 X183.629 Y48.201 E4.59816
G1 X184.199 Y48.991 E4.63056
G1 X184.661 Y49.767 E4.6606
G1 X185.115 Y50.709 E4.69538
G1 X185.444 Y51.587 E4.72656
G1 X185.713 Y52.559 E4.76011
G1 X185.89 Y53.525 E4.79277
G1 X185.985 Y54.655 E4.83049
G1 X186 Y55.33 E4.85294
G1 X185.999 Y62.4 E5.08809
G1 X185.988 Y63.163 E5.11347
G1 X185.931 Y64.136 E5.14589
G1 X185.786 Y65.099 E5.17828
G1 X185.557 Y66.045 E5.21065
G1 X185.246 Y66.969 E5.24308
G1 X184.854 Y67.86 E5.27546
G1 X184.386 Y68.712 E5.30779
G1 X183.864 Y69.493 E5.33903
G1 X183.231 Y70.278 E5.37257
G1 X182.606 Y70.929 E5.40259
G1 X181.817 Y71.617 E5.43741
G1 X181.057 Y72.167 E5.46861
G1 X180.19 Y72.684 E5.50218
G1 X179.312 Y73.106 E5.53458
G1 X178.401 Y73.448 E5.56695
G1 X177.462 Y73.709 E5.59936
G1 X176.496 Y73.887 E5.63203
G1 X175.345 Y73.985 E5.67046
G1 X174.688 Y74 E5.69231
G1 X163.085 Y74 E6.07823
G1 X160.501 Y74.037 E6.16418
G1 X157.936 Y74.146 E6.24957
G1 X155.457 Y74.322 E6.33223
G1 X152.956 Y74.569 E6.41582
G1 X150.448 Y74.89 E6.49992
G1 X147.965 Y75.28 E6.58351
G1 X145.522 Y75.734 E6.66616
G1 X143.03 Y76.271 E6.75095
G1 X140.584 Y76.87 E6.8347
G1 X138.162 Y77.535 E6.91824
G1 X135.771 Y78.268 E7.00142
G1 X133.369 Y79.079 E7.08574
G1 X130.998 Y79.953 E7.16979
G1 X128.713 Y80.871 E7.25169
G1 X126.342 Y81.903 E7.3377
G1 X124.056 Y82.974 E7.42166
G1 X121.854 Y84.083 E7.50366
G1 X119.616 Y85.293 E7.58828
G1 X117.448 Y86.543 E7.67152
G1 X115.284 Y87.874 E7.75602
G1 X113.192 Y89.244 E7.83919
G1 X111.123 Y90.685 E7.92305
G1 X109.097 Y92.182 E8.00684
G1 X107.127 Y93.726 E8.09008
G1 X105.157 Y95.361 E8.17523
G1 X103.281 Y97.011 E8.25833
G1 X101.454 Y98.711 E8.34133
G1 X99.661 Y100.477 E8.42504
G1 X97.914 Y102.3 E8.50902
G1 X96.206 Y104.184 E8.5936
G1 X94.586 Y106.077 E8.67647
G1 X92.984 Y108.058 E8.7612
G1 X91.494 Y110.015 E8.84301
G1 X90.001 Y112.087 E8.92796
G1 X88.588 Y114.177 E9.01186
G1 X87.235 Y116.303 E9.09568
G1 X85.944 Y118.466 E9.17946
G1 X84.734 Y120.629 E9.2619
G1 X83.561 Y122.874 E9.34614
G1 X82.457 Y125.139 E9.42995
G1 X81.416 Y127.437 E9.51386
G1 X80.439 Y129.768 E9.59792
G1 X79.53 Y132.12 E9.68179
G1 X78.686 Y134.505 E9.76593
G1 X77.926 Y136.865 E9.8484
G1 X77.214 Y139.301 E9.93281
G1 X76.58 Y141.73 E10.01631
G1 X76.009 Y144.204 E10.10075
G1 X75.511 Y146.674 E10.18456
G1 X75.089 Y149.121 E10.26715
G1 X74.733 Y151.611 E10.35081
G1 X74.445 Y154.128 E10.43507
G1 X74.228 Y156.624 E10.5184
G1 X74.086 Y159.111 E10.60125
G1 X74.01 Y161.701 E10.68743
G1 X74 Y163.08 E10.7333
G1 X73.999 Y174.416 E11.11034
G1 X73.987 Y175.177 E11.13565
G1 X73.929 Y176.15 E11.16807
G1 X73.783 Y177.113 E11.20047
G1 X73.552 Y178.06 E11.23289
G1 X73.239 Y178.982 E11.26527
G1 X72.847 Y179.873 E11.29765
G1 X72.395 Y180.695 E11.32885
G1 X71.833 Y181.533 E11.36241
G1 X71.243 Y182.263 E11.39363
G1 X70.54 Y182.989 E11.42724
G1 X69.804 Y183.625 E11.45959
G1 X69.014 Y184.195 E11.49199
G1 X68.238 Y184.658 E11.52205
G1 X67.298 Y185.111 E11.55675
G1 X66.385 Y185.453 E11.58918
G1 X65.447 Y185.712 E11.62155
G1 X64.481 Y185.889 E11.65421
G1 X63.345 Y185.985 E11.69213
G1 X62.67 Y186 E11.71459
G1 X55.564 Y185.999 E11.95093
G1 X54.831 Y185.988 E11.97531
G1 X53.859 Y185.931 E12.0077
G1 X52.896 Y185.785 E12.04009
G1 X51.95 Y185.556 E12.07247
G1 X51.026 Y185.244 E12.1049
G1 X50.136 Y184.852 E12.13725
G1 X49.313 Y184.401 E12.16846
G1 X48.474 Y183.84 E12.20203
G1 X47.77 Y183.274 E12.23208
G1 X47.017 Y182.549 E12.26684
G1 X46.38 Y181.813 E12.29922
G1 X45.85 Y181.082 E12.32925
G1 X45.314 Y180.185 E12.364
G1 X44.892 Y179.307 E12.3964
G1 X44.55 Y178.395 E12.4288
G1 X44.29 Y177.457 E12.46117
G1 X44.112 Y176.488 E12.49394
G1 X44.014 Y175.309 E12.53329
G1 X44 Y174.658 E12.55495
G1 X44.001 Y102.642 E14.95021
G1 X44.028 Y101.467 E14.9893
G1 X44.18 Y98.764 E15.07935
G1 X44.251 Y96.236 E15.16346
G1 X44.251 Y93.723 E15.24704
G1 X44.178 Y91.206 E15.33079
G1 X44.024 Y88.478 E15.42167
G1 X44 Y87.282 E15.46146
G1 X44.001 Y55.525 E16.5177
G1 X44.012 Y54.825 E16.54099
G1 X44.07 Y53.852 E16.57341
G1 X44.216 Y52.889 E16.6058
G1 X44.446 Y51.943 E16.63818
G1 X44.759 Y51.02 E16.6706
G1 X45.151 Y50.13 E16.70294
G1 X45.621 Y49.277 E16.73534
G1 X46.164 Y48.469 E16.76772
G1 X46.731 Y47.765 E16.79778
G1 X47.456 Y47.013 E16.83252
G0 F6000 X47.718 Y47.315
G1 F1200 X48.427 Y46.7 E16.86374
G1 X49.159 Y46.17 E16.8938
G1 X49.995 Y45.671 E16.92618
G1 X50.84 Y45.264 E16.95738
G1 X51.719 Y44.933 E16.98862
G1 X52.622 Y44.682 E17.01979
G1 X53.55 Y44.51 E17.05118
G1 X54.689 Y44.414 E17.0892
G1 X55.321 Y44.4 E17.11022
G1 X127.202 Y44.4 E19.50099
G1 X128.065 Y44.411 E19.5297
G1 X128.506 Y44.427 E19.54438
G1 X131.224 Y44.58 E19.63492
G1 X133.753 Y44.651 E19.71907
G1 X136.265 Y44.651 E19.80262
G1 X138.806 Y44.578 E19.88717
G1 X141.521 Y44.425 E19.97761
G1 X141.979 Y44.409 E19.99285
G1 X142.718 Y44.4 E20.01744
G1 X174.445 Y44.401 E21.07268
G1 X175.16 Y44.412 E21.09646
G1 X176.097 Y44.468 E21.12768
G1 X177.025 Y44.607 E21.15889
G1 X177.938 Y44.828 E21.19014
G1 X178.794 Y45.116 E21.22018
G1 X179.686 Y45.506 E21.25256
G1 X180.507 Y45.959 E21.28374
G1 X181.258 Y46.461 E21.31379
G1 X182.017 Y47.073 E21.34622
G1 X182.691 Y47.726 E21.37743
G1 X183.305 Y48.435 E21.40862
G1 X183.855 Y49.196 E21.43985
G1 X184.317 Y49.972 E21.46989
G1 X184.74 Y50.849 E21.50228
G1 X185.069 Y51.727 E21.53346
G1 X185.32 Y52.632 E21.5647
G1 X185.491 Y53.559 E21.59605
G1 X185.586 Y54.689 E21.63377
G1 X185.6 Y55.33 E21.65509
G1 X185.599 Y62.395 E21.89008
G1 X185.589 Y63.14 E21.91486
G1 X185.535 Y64.077 E21.94607
G1 X185.397 Y65.006 E21.97731
G1 X185.178 Y65.918 E22.00851
G1 X184.88 Y66.808 E22.03972
G1 X184.503 Y67.668 E22.07095
G1 X184.053 Y68.49 E22.10212
G1 X183.531 Y69.271 E22.13337
G1 X182.942 Y70.001 E22.16456
G1 X182.317 Y70.652 E22.19458
G1 X181.582 Y71.293 E22.22702
G1 X180.822 Y71.843 E22.25822
G1 X180.016 Y72.324 E22.28944
G1 X179.171 Y72.732 E22.32065
G1 X178.293 Y73.063 E22.35186
G1 X177.389 Y73.316 E22.38308
G1 X176.462 Y73.488 E22.41444
G1 X175.311 Y73.586 E22.45286
G1 X174.679 Y73.6 E22.47388
G1 X163.079 Y73.6 E22.8597
G1 X160.484 Y73.637 E22.94602
G1 X157.919 Y73.746 E23.03141
G1 X155.426 Y73.923 E23.11454
G1 X152.905 Y74.172 E23.19879
G1 X150.397 Y74.493 E23.28289
G1 X147.903 Y74.885 E23.36686
G1 X145.438 Y75.343 E23.45025
G1 X142.935 Y75.882 E23.53541
G1 X140.489 Y76.481 E23.61916
G1 X138.056 Y77.15 E23.70309
G1 X135.643 Y77.889 E23.78703
G1 X133.241 Y78.7 E23.87135
G1 X130.849 Y79.582 E23.95614
G1 X128.553 Y80.504 E24.03843
G1 X126.182 Y81.536 E24.12444
G1 X123.886 Y82.612 E24.20878
G1 X121.664 Y83.731 E24.29152
G1 X119.416 Y84.946 E24.37651
G1 X117.248 Y86.196 E24.45975
G1 X115.074 Y87.533 E24.54464
G1 X112.973 Y88.909 E24.62817
G1 X110.885 Y90.363 E24.71279
G1 X108.859 Y91.86 E24.79658
G1 X106.88 Y93.411 E24.88021
G1 X104.902 Y95.053 E24.96571
G1 X103.017 Y96.711 E25.04921
G1 X101.173 Y98.426 E25.13296
G1 X99.38 Y100.192 E25.21667
G1 X97.625 Y102.023 E25.30102
G1 X95.91 Y103.915 E25.38596
G1 X94.275 Y105.825 E25.46958
G1 X92.673 Y107.806 E25.55432
G1 X91.169 Y109.781 E25.63688
G1 X89.677 Y111.853 E25.72181
G1 X88.257 Y113.953 E25.80612
G1 X86.898 Y116.088 E25.8903
G1 X85.601 Y118.261 E25.97447
G1 X84.385 Y120.434 E26.05729
G1 X83.201 Y122.699 E26.1423
G1 X82.097 Y124.964 E26.2261
G1 X81.047 Y127.282 E26.31074
G1 X80.07 Y129.613 E26.3948
G1 X79.157 Y131.976 E26.47906
G1 X78.309 Y134.371 E26.56356
G1 X77.545 Y136.742 E26.64642
G1 X76.83 Y139.189 E26.73121
G1 X76.193 Y141.629 E26.81508
G1 X75.619 Y144.114 E26.89991
G1 X75.119 Y146.595 E26.98409
G1 X74.695 Y149.053 E27.06705
G1 X74.337 Y151.554 E27.15108
G1 X74.046 Y154.094 E27.23611
G1 X73.83 Y156.59 E27.31944
G1 X73.686 Y159.099 E27.40303
G1 X73.61 Y161.689 E27.48921
G1 X73.6 Y163.077 E27.53537
G1 X73.599 Y174.41 E27.91231
G1 X73.588 Y175.154 E27.93706
G1 X73.533 Y176.091 E27.96828
G1 X73.394 Y177.019 E27.99949
G1 X73.173 Y177.932 E28.03073
G1 X72.873 Y178.821 E28.06194
G1 X72.496 Y179.68 E28.09314
G1 X72.044 Y180.502 E28.12434
G1 X71.521 Y181.282 E28.15557
G1 X70.955 Y181.985 E28.18559
G1 X70.278 Y182.687 E28.21803
G1 X69.57 Y183.301 E28.2492
G1 X68.809 Y183.851 E28.28043
G1 X68.033 Y184.314 E28.31048
G1 X67.157 Y184.737 E28.34284
G1 X66.278 Y185.068 E28.37408
G1 X65.374 Y185.319 E28.40528
G1 X64.447 Y185.49 E28.43664
G1 X63.311 Y185.586 E28.47455
G1 X62.67 Y185.6 E28.49588
G1 X55.57 Y185.599 E28.73203
G1 X54.854 Y185.589 E28.75584
G1 X53.918 Y185.535 E28.78703
G1 X52.989 Y185.396 E28.81827
G1 X52.077 Y185.177 E28.84946
G1 X51.187 Y184.878 E28.88069
G1 X50.328 Y184.501 E28.91189
G1 X49.505 Y184.05 E28.94311
G1 X48.725 Y183.528 E28.97432
G1 X48.021 Y182.962 E29.00437
G1 X47.319 Y182.287 E29.03676
G1 X46.704 Y181.578 E29.06797
G1 X46.174 Y180.847 E29.09801
G1 X45.674 Y180.011 E29.1304
G1 X45.266 Y179.166 E29.16161
G1 X44.935 Y178.288 E29.19282
G1 X44.683 Y177.384 E29.22404
G1 X44.511 Y176.455 E29.25546
G1 X44.413 Y175.276 E29.29481
G1 X44.4 Y174.658 E29.31537
G1 X44.401 Y102.651 E31.71033
G1 X44.427 Y101.49 E31.74896
G1 X44.58 Y98.775 E31.8394
G1 X44.651 Y96.247 E31.92351
G1 X44.651 Y93.723 E32.00746
G1 X44.578 Y91.194 E32.09161
G1 X44.424 Y88.47 E32.18236
G1 X44.4 Y87.282 E32.22188
G1 X44.401 Y55.531 E33.27792
G1 X44.411 Y54.848 E33.30064
G1 X44.466 Y53.911 E33.33186
G1 X44.605 Y52.983 E33.36307
G1 X44.825 Y52.071 E33.39427
G1 X45.125 Y51.181 E33.42551
G1 X45.502 Y50.322 E33.45671
G1 X45.953 Y49.5 E33.4879
G1 X46.476 Y48.72 E33.51913
G1 X47.043 Y48.016 E33.5492
G1 X47.718 Y47.315 E33.58156
G0 F6000 X47.981 Y47.617
G1 F1200 X48.662 Y47.024 E33.6116
G1 X49.394 Y46.494 E33.64166
G1 X50.169 Y46.031 E33.67168
G1 X50.982 Y45.638 E33.70172
G1 X51.827 Y45.318 E33.73177
G1 X52.696 Y45.075 E33.76178
G1 X53.584 Y44.909 E33.79183
G1 X54.723 Y44.813 E33.82984
G1 X55.33 Y44.8 E33.85004
G1 X127.197 Y44.8 E36.24034
G1 X128.051 Y44.811 E36.26875
G1 X128.483 Y44.826 E36.28313
G1 X131.213 Y44.98 E36.37407
G1 X133.742 Y45.051 E36.45822
G1 X136.276 Y45.051 E36.5425
G1 X138.817 Y44.978 E36.62705
G1 X141.544 Y44.824 E36.7179
G1 X141.984 Y44.809 E36.73254
G1 X142.718 Y44.8 E36.75695
G1 X174.439 Y44.801 E37.812
G1 X175.137 Y44.811 E37.83522
G1 X176.039 Y44.864 E37.86527
G1 X176.932 Y44.996 E37.89529
G1 X177.81 Y45.207 E37.92533
G1 X178.666 Y45.495 E37.95536
G1 X179.493 Y45.857 E37.98539
G1 X180.285 Y46.292 E38.01544
G1 X181.036 Y46.794 E38.04549
G1 X181.739 Y47.361 E38.07553
G1 X182.389 Y47.988 E38.10557
G1 X182.981 Y48.67 E38.1356
G1 X183.511 Y49.401 E38.16563
G1 X183.973 Y50.177 E38.19567
G1 X184.366 Y50.99 E38.22571
G1 X184.684 Y51.835 E38.25574
G1 X184.927 Y52.705 E38.28578
G1 X185.092 Y53.593 E38.31582
G1 X185.187 Y54.723 E38.35354
G1 X185.2 Y55.33 E38.37373
G1 X185.199 Y62.39 E38.60855
G1 X185.19 Y63.117 E38.63273
G1 X185.139 Y64.019 E38.66278
G1 X185.008 Y64.913 E38.69283
G1 X184.799 Y65.791 E38.72285
G1 X184.513 Y66.648 E38.7529
G1 X184.152 Y67.476 E38.78294
G1 X183.72 Y68.268 E38.81295
G1 X183.219 Y69.02 E38.843
G1 X182.653 Y69.724 E38.87304
G1 X182.028 Y70.375 E38.90306
G1 X181.347 Y70.969 E38.93312
G1 X180.616 Y71.5 E38.96317
G1 X179.842 Y71.964 E38.99318
G1 X179.029 Y72.358 E39.02323
G1 X178.185 Y72.678 E39.05325
G1 X177.315 Y72.923 E39.08331
G1 X176.428 Y73.089 E39.11333
G1 X175.277 Y73.187 E39.15175
G1 X174.67 Y73.2 E39.17194
G1 X163.073 Y73.2 E39.55766
G1 X160.467 Y73.237 E39.64434
G1 X157.902 Y73.346 E39.72973
G1 X155.395 Y73.524 E39.81333
G1 X152.854 Y73.775 E39.89825
G1 X150.346 Y74.096 E39.98235
G1 X147.841 Y74.49 E40.06669
G1 X145.354 Y74.952 E40.15082
G1 X142.84 Y75.493 E40.23635
G1 X140.394 Y76.092 E40.32011
G1 X137.95 Y76.765 E40.40442
G1 X135.515 Y77.51 E40.48912
G1 X133.113 Y78.321 E40.57344
G1 X130.7 Y79.211 E40.65898
G1 X128.393 Y80.137 E40.74166
G1 X126.022 Y81.169 E40.82767
G1 X123.716 Y82.25 E40.91238
G1 X121.474 Y83.379 E40.99587
G1 X119.216 Y84.599 E41.08123
G1 X117.048 Y85.849 E41.16446
G1 X114.864 Y87.192 E41.24974
G1 X112.754 Y88.574 E41.33363
G1 X110.647 Y90.041 E41.41902
G1 X108.621 Y91.538 E41.50281
G1 X106.624 Y93.103 E41.58719
G1 X104.646 Y94.746 E41.67272
G1 X102.753 Y96.411 E41.75657
G1 X100.892 Y98.141 E41.84108
G1 X99.099 Y99.907 E41.92478
G1 X97.336 Y101.746 E42.00952
G1 X95.614 Y103.646 E42.0948
G1 X93.971 Y105.565 E42.17883
G1 X92.362 Y107.555 E42.26394
G1 X90.844 Y109.547 E42.34724
G1 X89.353 Y111.619 E42.43215
G1 X87.919 Y113.738 E42.51725
G1 X86.561 Y115.873 E42.6014
G1 X85.258 Y118.056 E42.68596
G1 X84.036 Y120.239 E42.76917
G1 X82.841 Y122.524 E42.85493
G1 X81.737 Y124.789 E42.93874
G1 X80.678 Y127.127 E43.02411
G1 X79.701 Y129.458 E43.10817
G1 X78.784 Y131.832 E43.19282
G1 X77.932 Y134.237 E43.27768
G1 X77.164 Y136.619 E43.36092
G1 X76.446 Y139.077 E43.44609
G1 X75.806 Y141.528 E43.53034
G1 X75.229 Y144.024 E43.61555
G1 X74.727 Y146.516 E43.7001
G1 X74.301 Y148.985 E43.78343
G1 X73.941 Y151.497 E43.86784
G1 X73.647 Y154.06 E43.95364
G1 X73.432 Y156.556 E44.03697
G1 X73.286 Y159.087 E44.12129
G1 X73.21 Y161.677 E44.20747
G1 X73.2 Y163.074 E44.25393
G1 X73.199 Y174.404 E44.63077
G1 X73.189 Y175.131 E44.65495
G1 X73.137 Y176.033 E44.685
G1 X73.005 Y176.926 E44.71503
G1 X72.794 Y177.805 E44.74509
G1 X72.507 Y178.661 E44.77512
G1 X72.145 Y179.488 E44.80515
G1 X71.711 Y180.28 E44.83519
G1 X71.209 Y181.031 E44.86523
G1 X70.643 Y181.734 E44.89525
G1 X70.016 Y182.385 E44.92531
G1 X69.335 Y182.977 E44.95532
G1 X68.604 Y183.507 E44.98535
G1 X67.828 Y183.97 E45.01541
G1 X67.015 Y184.363 E45.04544
G1 X66.17 Y184.683 E45.0755
G1 X65.301 Y184.926 E45.10551
G1 X64.413 Y185.091 E45.13555
G1 X63.277 Y185.187 E45.17347
G1 X62.67 Y185.2 E45.19366
G1 X55.575 Y185.199 E45.42964
G1 X54.877 Y185.19 E45.45286
G1 X53.976 Y185.139 E45.48287
G1 X53.082 Y185.007 E45.51293
G1 X52.204 Y184.798 E45.54295
G1 X51.347 Y184.511 E45.57301
G1 X50.52 Y184.15 E45.60302
G1 X49.727 Y183.717 E45.63307
G1 X48.976 Y183.216 E45.6631
G1 X48.272 Y182.65 E45.69314
G1 X47.621 Y182.024 E45.72318
G1 X47.028 Y181.343 E45.75322
G1 X46.498 Y180.612 E45.78325
G1 X46.034 Y179.837 E45.81329
G1 X45.64 Y179.024 E45.84334
G1 X45.32 Y178.18 E45.87336
G1 X45.076 Y177.31 E45.90341
G1 X44.91 Y176.422 E45.93346
G1 X44.813 Y175.267 E45.97201
G1 X44.8 Y174.658 E45.99227
G1 X44.801 Y102.66 E48.38693
G1 X44.826 Y101.513 E48.42509
G1 X44.98 Y98.786 E48.51594
G1 X45.051 Y96.258 E48.60005
G1 X45.051 Y93.723 E48.68437
