; HEADER_BLOCK_START
; generated by OrcaSlicer 2.1.1 on 2024-08-26 at 21:29:42
; total layer number: 251
; filament_density: 1.24
; filament_diameter: 1.75
; max_z_height: 50.00
; HEADER_BLOCK_END

; THUMBNAIL_BLOCK_START

;
; THUMBNAIL_BLOCK_END

; THUMBNAIL_BLOCK_START

;
; THUMBNAIL_BLOCK_END

; external perimeters extrusion width = 0.40mm
; perimeters extrusion width = 0.40mm
; infill extrusion width = 0.40mm
; solid infill extrusion width = 0.40mm
; top infill extrusion width = 0.40mm
; first layer extrusion width = 0.40mm

; EXECUTABLE_BLOCK_START
M73 P0 R24
;TYPE:Custom
SET_VELOCITY_LIMIT SQUARE_CORNER_VELOCITY=1 ACCEL=500
TUNING_TOWER COMMAND=SET_PRESSURE_ADVANCE PARAMETER=ADVANCE START=0 FACTOR=.005

G90 ; use absolute coordinates
M83 ; extruder relative mode
M140 S55 ; set final bed temp
M104 S150 ; set temporary nozzle temp to prevent oozing during homing
G4 S10 ; allow partial nozzle warmup
G28 ; home all axis
G1 Z50 F240
G1 X2 Y10 F3000
M104 S220 ; set final nozzle temp
M190 S55 ; wait for bed temp to stabilize
M109 S220 ; wait for nozzle temp to stabilize
G1 Z0.28 F240
G92 E0
G1 Y140 E10 F1500 ; prime the nozzle
M73 P1 R24
G1 X2.3 F5000
G92 E0
M73 P2 R23
G1 Y10 E10 F1200 ; prime the nozzle
G92 E0
G90
G21
M83 ; use relative distances for extrusion
; filament start gcode
M106 P3 S255


M106 S0
;LAYER_CHANGE
;Z:0.2
;HEIGHT:0.2
;BEFORE_LAYER_CHANGE
;0.2
G92 E0

G1 Z.2 F30000
;_SET_FAN_SPEED_CHANGING_LAYER
; printing object square_tower.stl id:18446744073709551615 copy 0
G1 E-.5 F3600
G1 X89.65 Y89.65 F30000
G1 E.5 F2400
;TYPE:Outer wall
;WIDTH:0.4
G1 F3000
G1 X113.65 Y89.65 E.71259
G1 X113.65 Y89.15 E.01485
G1 X116.35 Y89.15 E.08017
G1 X116.35 Y89.65 E.01485
G1 X140.35 Y89.65 E.71259
G1 X140.35 Y113.65 E.71259
G1 X140.85 Y113.65 E.01485
G1 X140.85 Y116.35 E.08017
G1 X140.35 Y116.35 E.01485
G1 X140.35 Y140.35 E.71259
G1 X116.35 Y140.35 E.71259
G1 X116.35 Y140.85 E.01485
G1 X113.65 Y140.85 E.08017
G1 X113.65 Y140.35 E.01485
G1 X89.65 Y140.35 E.71259
G1 X89.65 Y112.35 E.83136
G1 X89.15 Y112.35 E.01485
G1 X89.15 Y109.65 E.08017
G1 X89.65 Y109.65 E.01485
G1 X89.65 Y89.69 E.59264
G1 E-.35 F3600
;WIPE_START
G1 F3000
G1 X90.65 Y89.688 E-.15
;WIPE_END
G1 X85.35 Y91.325 F30000
G1 E.5 F2400
G1 F3000
G1 X84.676 Y91.025 E.02191
G1 X83.89 Y90.454 E.02885
G1 X83.24 Y89.732 E.02885
G1 X82.754 Y88.891 E.02885
G1 X82.453 Y87.966 E.02885
G1 X82.352 Y87 E.02885
G1 X82.453 Y86.034 E.02885
G1 X82.754 Y85.109 E.02885
G1 X83.24 Y84.268 E.02885
G1 X83.89 Y83.546 E.02885
G1 X84.676 Y82.975 E.02885
G1 X85.564 Y82.579 E.02885
G1 X86.514 Y82.377 E.02885
G1 X87.486 Y82.377 E.02885
G1 X87.578 Y82.397 E.00279
G1 X88.436 Y82.579 E.02606
G1 X89.324 Y82.975 E.02885
G1 X90.11 Y83.546 E.02885
G1 X90.76 Y84.268 E.02885
G1 X91.246 Y85.109 E.02885
G1 X91.324 Y85.35 E.00751
G1 X138.675 Y85.35 E1.40591
G1 X138.754 Y85.11 E.00751
M73 P3 R23
G1 X139.24 Y84.268 E.02886
G1 X139.89 Y83.546 E.02885
G1 X140.676 Y82.975 E.02885
G1 X141.564 Y82.579 E.02885
G1 X142.514 Y82.377 E.02885
G1 X143.486 Y82.377 E.02885
G1 X144.436 Y82.579 E.02885
G1 X145.324 Y82.975 E.02885
G1 X146.11 Y83.546 E.02885
G1 X146.76 Y84.268 E.02885
G1 X147.246 Y85.109 E.02885
G1 X147.546 Y86.034 E.02885
G1 X147.648 Y87 E.02885
G1 X147.546 Y87.966 E.02885
G1 X147.246 Y88.891 E.02885
G1 X146.76 Y89.732 E.02885
G1 X146.11 Y90.454 E.02885
G1 X145.324 Y91.025 E.02885
G1 X144.65 Y91.325 E.02191
G1 X144.65 Y138.675 E1.40586
G1 X145.324 Y138.975 E.02191
G1 X146.11 Y139.546 E.02885
G1 X146.76 Y140.268 E.02885
G1 X147.246 Y141.109 E.02885
G1 X147.517 Y141.944 E.02606
G1 X147.546 Y142.034 E.00279
G1 X147.648 Y143 E.02885
G1 X147.546 Y143.966 E.02885
G1 X147.246 Y144.891 E.02885
G1 X146.76 Y145.732 E.02885
G1 X146.11 Y146.454 E.02885
G1 X145.324 Y147.025 E.02885
G1 X144.436 Y147.421 E.02885
G1 X143.486 Y147.623 E.02885
G1 X142.514 Y147.623 E.02885
G1 X141.564 Y147.421 E.02885
G1 X140.676 Y147.025 E.02885
G1 X139.89 Y146.454 E.02885
G1 X139.24 Y145.732 E.02885
G1 X138.754 Y144.89 E.02886
G1 X138.675 Y144.65 E.00751
G1 X91.324 Y144.65 E1.40591
G1 X91.246 Y144.891 E.00751
G1 X90.76 Y145.732 E.02885
G1 X90.11 Y146.454 E.02885
G1 X89.324 Y147.025 E.02885
G1 X88.436 Y147.421 E.02885
G1 X87.486 Y147.623 E.02885
G1 X86.514 Y147.623 E.02885
G1 X85.564 Y147.421 E.02885
G1 X84.676 Y147.025 E.02885
G1 X83.89 Y146.454 E.02885
G1 X83.24 Y145.732 E.02885
G1 X82.754 Y144.891 E.02885
G1 X82.453 Y143.966 E.02885
G1 X82.352 Y143 E.02885
G1 X82.453 Y142.034 E.02885
G1 X82.754 Y141.109 E.02885
G1 X83.24 Y140.268 E.02885
G1 X83.89 Y139.546 E.02885
G1 X84.676 Y138.975 E.02885
G1 X85.35 Y138.675 E.02191
G1 X85.35 Y91.365 E1.40467
G1 E-.35 F3600
;WIPE_START
G1 F3000
G1 X84.676 Y91.025 E-.11325
G1 X84.478 Y90.881 E-.03675
;WIPE_END
G1 X147.049 Y140.982 F30000
G1 E.5 F2400
;TYPE:Bottom surface
;WIDTH:0.40041
G1 F6300
G1 X145.026 Y138.959 E.08504
G1 E-.35 F3600
;WIPE_START
G1 F6300
G1 X145.733 Y139.666 E-.15
;WIPE_END
G1 X147.3 Y85.62 F30000
G1 E.5 F2400
G1 F6300
G1 X144.644 Y82.965 E.11162
G1 X144.353 Y82.836 E.00948
G1 X143.916 Y82.743 E.01327
G1 X147.285 Y86.112 E.14163
G1 X147.345 Y86.677 E.01689
G1 X143.313 Y82.645 E.16948
G1 X142.808 Y82.645 E.01503
G1 X147.358 Y87.196 E.19129
G1 X147.31 Y87.653 E.01367
G1 X142.344 Y82.687 E.20876
G1 X141.927 Y82.776 E.01267
G1 X147.229 Y88.077 E.22286
G1 X147.105 Y88.459 E.01193
G1 X141.532 Y82.887 E.23426
G1 X141.183 Y83.042 E.01138
G1 X146.971 Y88.831 E.24335
G1 X146.786 Y89.152 E.011
G1 X140.833 Y83.198 E.25028
G1 X140.536 Y83.407 E.01078
G1 X146.601 Y89.472 E.25496
G1 X146.543 Y89.574 E.00349
G1 X146.379 Y89.755 E.00727
G1 X140.243 Y83.62 E.25793
G1 X140.07 Y83.746 E.00637
G1 X139.972 Y83.854 E.00434
G1 X146.139 Y90.021 E.25925
G1 X145.893 Y90.281 E.01063
G1 X139.733 Y84.12 E.25897
G1 X139.493 Y84.386 E.01064
G1 X145.6 Y90.494 E.25673
G1 X145.308 Y90.706 E.01076
G1 X139.3 Y84.699 E.25254
G1 X139.115 Y85.019 E.011
G1 X144.981 Y90.885 E.24658
G1 X144.631 Y91.041 E.01138
G1 X138.953 Y85.363 E.2387
G1 X138.869 Y85.618 E.00798
G1 X138.702 Y85.618 E.00497
G1 X144.382 Y91.298 E.23877
G1 X144.382 Y91.803 E.01503
G1 X138.197 Y85.618 E.26002
G1 X137.691 Y85.618 E.01503
G1 X144.382 Y92.309 E.28127
G1 X144.382 Y92.814 E.01503
G1 X137.186 Y85.618 E.30253
G1 X136.68 Y85.618 E.01503
G1 X144.382 Y93.32 E.32378
G1 X144.382 Y93.825 E.01503
G1 X140.618 Y90.061 E.15825
G1 X140.618 Y90.567 E.01503
G1 X144.382 Y94.331 E.15825
G1 X144.382 Y94.837 E.01503
G1 X140.618 Y91.072 E.15825
G1 X140.618 Y91.578 E.01503
G1 X144.382 Y95.342 E.15825
G1 X144.382 Y95.848 E.01503
G1 X140.618 Y92.083 E.15825
G1 X140.618 Y92.589 E.01503
G1 X144.382 Y96.353 E.15825
G1 X144.382 Y96.859 E.01503
G1 X140.618 Y93.094 E.15825
G1 X140.618 Y93.6 E.01503
G1 X144.382 Y97.364 E.15825
G1 X144.382 Y97.87 E.01503
G1 X140.618 Y94.106 E.15825
G1 X140.618 Y94.611 E.01503
G1 X144.382 Y98.376 E.15825
G1 X144.382 Y98.881 E.01503
G1 X140.618 Y95.117 E.15825
G1 X140.618 Y95.622 E.01503
M73 P4 R23
G1 X144.382 Y99.387 E.15825
G1 X144.382 Y99.892 E.01503
G1 X140.618 Y96.128 E.15825
G1 X140.618 Y96.633 E.01503
G1 X144.382 Y100.398 E.15825
G1 X144.382 Y100.903 E.01503
G1 X140.618 Y97.139 E.15825
G1 X140.618 Y97.645 E.01503
G1 X144.382 Y101.409 E.15825
G1 X144.382 Y101.915 E.01503
G1 X140.618 Y98.15 E.15825
G1 X140.618 Y98.656 E.01503
G1 X144.382 Y102.42 E.15825
G1 X144.382 Y102.926 E.01503
G1 X140.618 Y99.161 E.15825
G1 X140.618 Y99.667 E.01503
G1 X144.382 Y103.431 E.15825
G1 X144.382 Y103.937 E.01503
G1 X140.618 Y100.172 E.15825
G1 X140.618 Y100.678 E.01503
G1 X144.382 Y104.442 E.15825
G1 X144.382 Y104.948 E.01503
G1 X140.618 Y101.184 E.15825
G1 X140.618 Y101.689 E.01503
G1 X144.382 Y105.454 E.15825
G1 X144.382 Y105.959 E.01503
G1 X140.618 Y102.195 E.15825
G1 X140.618 Y102.7 E.01503
G1 X144.382 Y106.465 E.15825
G1 X144.382 Y106.97 E.01503
G1 X140.618 Y103.206 E.15825
G1 X140.618 Y103.711 E.01503
G1 X144.382 Y107.476 E.15825
G1 X144.382 Y107.981 E.01503
G1 X140.618 Y104.217 E.15825
G1 X140.618 Y104.723 E.01503
G1 X144.382 Y108.487 E.15825
G1 X144.382 Y108.992 E.01503
G1 X140.618 Y105.228 E.15825
G1 X140.618 Y105.734 E.01503
G1 X144.382 Y109.498 E.15825
G1 X144.382 Y110.004 E.01503
G1 X140.618 Y106.239 E.15825
G1 X140.618 Y106.745 E.01503
G1 X144.382 Y110.509 E.15825
G1 X144.382 Y111.015 E.01503
G1 X140.618 Y107.25 E.15825
G1 X140.618 Y107.756 E.01503
G1 X144.382 Y111.52 E.15825
G1 X144.382 Y112.026 E.01503
G1 X140.618 Y108.262 E.15825
G1 X140.618 Y108.767 E.01503
G1 X144.382 Y112.531 E.15825
G1 X144.382 Y113.037 E.01503
G1 X140.618 Y109.273 E.15825
G1 X140.618 Y109.778 E.01503
G1 X144.382 Y113.543 E.15825
G1 X144.382 Y114.048 E.01503
G1 X140.618 Y110.284 E.15825
G1 X140.618 Y110.789 E.01503
G1 X144.382 Y114.554 E.15825
G1 X144.382 Y115.059 E.01503
G1 X140.618 Y111.295 E.15825
G1 X140.618 Y111.8 E.01503
G1 X144.382 Y115.565 E.15825
G1 X144.382 Y116.07 E.01503
G1 X140.618 Y112.306 E.15825
G1 X140.618 Y112.812 E.01503
G1 X144.382 Y116.576 E.15825
G1 X144.382 Y117.082 E.01503
G1 X141.118 Y113.817 E.13723
G1 X141.118 Y113.382 E.01293
G1 X140.683 Y113.382 E.01293
G1 X140.457 Y113.156 E.00949
G1 X140.957 Y114.162 F30000
G1 F6300
G1 X144.382 Y117.587 E.14398
G1 X144.382 Y118.093 E.01503
G1 X141.118 Y114.828 E.13723
G1 X141.118 Y115.334 E.01503
G1 X144.382 Y118.598 E.13723
G1 X144.382 Y119.104 E.01503
G1 X141.118 Y115.839 E.13723
G1 X141.118 Y116.345 E.01503
G1 X144.382 Y119.609 E.13723
G1 X144.382 Y120.115 E.01503
G1 X140.885 Y116.618 E.14701
G1 X140.618 Y116.618 E.00794
G1 X140.618 Y116.856 E.00708
G1 X144.382 Y120.621 E.15825
G1 X144.382 Y121.126 E.01503
G1 X140.618 Y117.362 E.15825
G1 X140.618 Y117.867 E.01503
G1 X144.382 Y121.632 E.15825
G1 X144.382 Y122.137 E.01503
G1 X140.618 Y118.373 E.15825
G1 X140.618 Y118.878 E.01503
G1 X144.382 Y122.643 E.15825
G1 X144.382 Y123.148 E.01503
G1 X140.618 Y119.384 E.15825
G1 X140.618 Y119.89 E.01503
G1 X144.382 Y123.654 E.15825
G1 X144.382 Y124.16 E.01503
G1 X140.618 Y120.395 E.15825
G1 X140.618 Y120.901 E.01503
G1 X144.382 Y124.665 E.15825
G1 X144.382 Y125.171 E.01503
G1 X140.618 Y121.406 E.15825
G1 X140.618 Y121.912 E.01503
G1 X144.382 Y125.676 E.15825
G1 X144.382 Y126.182 E.01503
G1 X140.618 Y122.417 E.15825
G1 X140.618 Y122.923 E.01503
G1 X144.382 Y126.687 E.15825
G1 X144.382 Y127.193 E.01503
G1 X140.618 Y123.429 E.15825
G1 X140.618 Y123.934 E.01503
G1 X144.382 Y127.698 E.15825
G1 X144.382 Y128.204 E.01503
G1 X140.618 Y124.44 E.15825
G1 X140.618 Y124.945 E.01503
G1 X144.382 Y128.71 E.15825
G1 X144.382 Y129.215 E.01503
G1 X140.618 Y125.451 E.15825
G1 X140.618 Y125.956 E.01503
G1 X144.382 Y129.721 E.15825
G1 X144.382 Y130.226 E.01503
G1 X140.618 Y126.462 E.15825
G1 X140.618 Y126.967 E.01503
G1 X144.382 Y130.732 E.15825
G1 X144.382 Y131.237 E.01503
G1 X140.618 Y127.473 E.15825
G1 X140.618 Y127.979 E.01503
G1 X144.382 Y131.743 E.15825
G1 X144.382 Y132.249 E.01503
G1 X140.618 Y128.484 E.15825
G1 X140.618 Y128.99 E.01503
G1 X144.382 Y132.754 E.15825
G1 X144.382 Y133.26 E.01503
G1 X140.618 Y129.495 E.15825
G1 X140.618 Y130.001 E.01503
G1 X144.382 Y133.765 E.15825
G1 X144.382 Y134.271 E.01503
G1 X140.618 Y130.506 E.15825
G1 X140.618 Y131.012 E.01503
G1 X144.382 Y134.776 E.15825
M73 P5 R23
G1 X144.382 Y135.282 E.01503
G1 X140.618 Y131.518 E.15825
G1 X140.618 Y132.023 E.01503
G1 X144.382 Y135.788 E.15825
G1 X144.382 Y136.293 E.01503
G1 X140.618 Y132.529 E.15825
G1 X140.618 Y133.034 E.01503
G1 X144.382 Y136.799 E.15825
G1 X144.382 Y137.304 E.01503
G1 X140.618 Y133.54 E.15825
G1 X140.618 Y134.045 E.01503
G1 X144.382 Y137.81 E.15825
G1 X144.382 Y138.315 E.01503
G1 X140.618 Y134.551 E.15825
G1 X140.618 Y135.057 E.01503
G1 X147.106 Y141.545 E.27275
G1 X147.283 Y142.09 E.01703
G1 X147.299 Y142.244 E.0046
G1 X140.618 Y135.562 E.28088
G1 X140.618 Y136.068 E.01503
G1 X147.359 Y142.809 E.28337
G1 X147.379 Y143 E.00572
G1 X147.347 Y143.302 E.00904
G1 X140.618 Y136.573 E.28288
G1 X140.618 Y137.079 E.01503
G1 X147.299 Y143.76 E.28086
G1 X147.283 Y143.91 E.0045
G1 X147.2 Y144.166 E.008
G1 X140.618 Y137.584 E.2767
G1 X140.618 Y138.09 E.01503
G1 X147.076 Y144.548 E.27149
G1 X147 Y144.781 E.00728
G1 X146.928 Y144.906 E.00428
G1 X140.618 Y138.596 E.26527
G1 X140.618 Y139.101 E.01503
G1 X146.743 Y145.226 E.25749
G1 X146.558 Y145.547 E.011
G1 X140.618 Y139.607 E.24972
G1 X140.618 Y140.112 E.01503
G1 X146.323 Y145.818 E.23984
G1 X146.084 Y146.084 E.01064
G1 X140.618 Y140.618 E.22977
G1 X140.112 Y140.618 E.01503
G1 X145.825 Y146.33 E.24015
G1 X145.532 Y146.543 E.01076
G1 X139.607 Y140.618 E.24909
G1 X139.101 Y140.618 E.01503
G1 X145.239 Y146.756 E.25803
G1 X144.899 Y146.921 E.01124
G1 X138.596 Y140.618 E.26499
G1 X138.09 Y140.618 E.01503
G1 X144.549 Y147.077 E.27154
G1 X144.353 Y147.164 E.00638
G1 X144.17 Y147.203 E.00556
G1 X137.584 Y140.618 E.27685
G1 X137.079 Y140.618 E.01503
G1 X143.753 Y147.292 E.28057
G1 X143.458 Y147.355 E.00898
G1 X143.31 Y147.355 E.00438
G1 X136.573 Y140.618 E.28321
G1 X136.068 Y140.618 E.01503
G1 X142.805 Y147.355 E.28321
G1 X142.542 Y147.355 E.0078
G1 X142.233 Y147.289 E.00938
G1 X135.562 Y140.618 E.28045
G1 X135.057 Y140.618 E.01503
G1 X141.568 Y147.129 E.27374
G1 X140.811 Y146.792 E.02465
G1 X140.499 Y146.566 E.01146
G1 X138.951 Y145.018 E.06507
G1 X138.476 Y144.543 F30000
G1 F6300
G1 X134.551 Y140.618 E.165
G1 X134.045 Y140.618 E.01503
G1 X137.81 Y144.382 E.15825
G1 X137.304 Y144.382 E.01503
G1 X133.54 Y140.618 E.15825
G1 X133.034 Y140.618 E.01503
G1 X136.799 Y144.382 E.15825
G1 X136.293 Y144.382 E.01503
G1 X132.529 Y140.618 E.15825
G1 X132.023 Y140.618 E.01503
G1 X135.788 Y144.382 E.15825
G1 X135.282 Y144.382 E.01503
G1 X131.518 Y140.618 E.15825
G1 X131.012 Y140.618 E.01503
G1 X134.776 Y144.382 E.15825
G1 X134.271 Y144.382 E.01503
G1 X130.506 Y140.618 E.15825
G1 X130.001 Y140.618 E.01503
G1 X133.765 Y144.382 E.15825
G1 X133.26 Y144.382 E.01503
G1 X129.495 Y140.618 E.15825
G1 X128.99 Y140.618 E.01503
G1 X132.754 Y144.382 E.15825
G1 X132.249 Y144.382 E.01503
G1 X128.484 Y140.618 E.15825
G1 X127.979 Y140.618 E.01503
G1 X131.743 Y144.382 E.15825
G1 X131.237 Y144.382 E.01503
G1 X127.473 Y140.618 E.15825
G1 X126.968 Y140.618 E.01503
G1 X130.732 Y144.382 E.15825
G1 X130.226 Y144.382 E.01503
G1 X126.462 Y140.618 E.15825
G1 X125.956 Y140.618 E.01503
G1 X129.721 Y144.382 E.15825
G1 X129.215 Y144.382 E.01503
G1 X125.451 Y140.618 E.15825
G1 X124.945 Y140.618 E.01503
G1 X128.71 Y144.382 E.15825
G1 X128.204 Y144.382 E.01503
G1 X124.44 Y140.618 E.15825
G1 X123.934 Y140.618 E.01503
G1 X127.698 Y144.382 E.15825
G1 X127.193 Y144.382 E.01503
G1 X123.429 Y140.618 E.15825
G1 X122.923 Y140.618 E.01503
G1 X126.687 Y144.382 E.15825
G1 X126.182 Y144.382 E.01503
G1 X122.417 Y140.618 E.15825
G1 X121.912 Y140.618 E.01503
G1 X125.676 Y144.382 E.15825
G1 X125.171 Y144.382 E.01503
G1 X121.406 Y140.618 E.15825
G1 X120.901 Y140.618 E.01503
G1 X124.665 Y144.382 E.15825
G1 X124.16 Y144.382 E.01503
G1 X120.395 Y140.618 E.15825
G1 X119.89 Y140.618 E.01503
G1 X123.654 Y144.382 E.15825
G1 X123.148 Y144.382 E.01503
G1 X119.384 Y140.618 E.15825
G1 X118.878 Y140.618 E.01503
G1 X122.643 Y144.382 E.15825
G1 X122.137 Y144.382 E.01503
G1 X118.373 Y140.618 E.15825
G1 X117.867 Y140.618 E.01503
M73 P6 R23
G1 X121.632 Y144.382 E.15825
G1 X121.126 Y144.382 E.01503
G1 X117.362 Y140.618 E.15825
G1 X116.856 Y140.618 E.01503
G1 X120.621 Y144.382 E.15825
G1 X120.115 Y144.382 E.01503
G1 X116.618 Y140.885 E.14701
G1 X116.618 Y141.118 E.00692
G1 X116.345 Y141.118 E.00811
G1 X119.609 Y144.382 E.13723
G1 X119.104 Y144.382 E.01503
G1 X115.839 Y141.118 E.13723
G1 X115.334 Y141.118 E.01503
G1 X118.598 Y144.382 E.13723
G1 X118.093 Y144.382 E.01503
G1 X114.828 Y141.118 E.13723
G1 X114.323 Y141.118 E.01503
G1 X117.587 Y144.382 E.13723
G1 X117.082 Y144.382 E.01503
G1 X113.817 Y141.118 E.13723
G1 X113.382 Y141.118 E.01293
M73 P6 R22
G1 X113.382 Y140.683 E.01293
G1 X113.317 Y140.618 E.00273
G1 X112.812 Y140.618 E.01503
G1 X116.576 Y144.382 E.15825
G1 X116.07 Y144.382 E.01503
G1 X112.306 Y140.618 E.15825
G1 X111.8 Y140.618 E.01503
G1 X115.565 Y144.382 E.15825
G1 X115.059 Y144.382 E.01503
G1 X111.295 Y140.618 E.15825
G1 X110.789 Y140.618 E.01503
